X: 1
M: none
L: 1/2
K: A
V: 1
A2 | F A | E2   || A2 | E E | G A | B2  || B2 | c A | d2  || B2  | c e   | d  B  | A2 |]
V: 2 clef=bass octave=-1
A,2 | D C | E2 || C2 | A, B, | C C | D2 || E2 | D C | B,2 || G,2 | A, A, | E, G, | A,2 |]
